app/dist/common/images/tasman-resources-nl.svg

<svg fill="none" height="18" viewBox="0 0 18 18" width="18" xmlns="http://www.w3.org/2000/svg" xmlns:xlink="http://www.w3.org/1999/xlink"><linearGradient id="a" gradientUnits="userSpaceOnUse" x1="9" x2="9" y1="3" y2="15"><stop offset="0" stop-color="#6facc0"/><stop offset="1" stop-color="#ebf8fa"/></linearGradient><path d="m0 0h18v18h-18z" fill="#f0f3fa"/><path clip-rule="evenodd" d="m9.13334 8.61158c1.16106.94038 2.64986 2.50422 2.54056 4.29302.4053-.7087.7595-2.5083-1.0654-4.03748-2.28105-1.91142-2.04885-3.72061.123-5.86712-2.54425 1.07694-3.73382 3.88181-1.59816 5.61158zm.17123-5.43852c-1.10152.42034-3.30457 1.84403-3.30457 4.17607 0 1.46791.899 2.41258 1.79159 3.35057.87997.9246 1.75371 1.8428 1.75371 3.2493-.01439.1936-.08689.6748-.26172 1.0509.56458-.2419 1.69372-1.0548 1.69372-2.3714 0-1.6456-2.02154-3.58769-2.62255-4.07832-.601-.49063-.87418-1.36967-.87418-2.29983 0-.93015.86153-2.27042 1.824-3.07729z" fill="url(#a)" fill-rule="evenodd"/></svg>

<!-- by TradingView --><svg width="18" height="18" viewBox="0 0 18 18" fill="none" xmlns="http://www.w3.org/2000/svg">
<rect width="18" height="18" fill="#F0F3FA"/>
<path fill-rule="evenodd" clip-rule="evenodd" d="M9.13334 8.61158C10.2944 9.55196 11.7832 11.1158 11.6739 12.9046C12.0792 12.1959 12.4334 10.3963 10.6085 8.86712C8.32745 6.9557 8.55965 5.14651 10.7315 3C8.18725 4.07694 6.99768 6.88181 9.13334 8.61158ZM9.30457 3.17306C8.20305 3.5934 6 5.01709 6 7.34913C6 8.81704 6.899 9.76171 7.79159 10.6997C8.67156 11.6243 9.5453 12.5425 9.5453 13.949C9.53091 14.1426 9.45841 14.6238 9.28358 14.9999C9.84816 14.758 10.9773 13.9451 10.9773 12.6285C10.9773 10.9829 8.95576 9.04081 8.35475 8.55018C7.75375 8.05955 7.48057 7.18051 7.48057 6.25035C7.48057 5.3202 8.3421 3.97993 9.30457 3.17306Z" fill="url(#paint0_linear_229_12654)"/>
<defs>
<linearGradient id="paint0_linear_229_12654" x1="9" y1="3" x2="9" y2="15" gradientUnits="userSpaceOnUse">
<stop stop-color="#6FACC0"/>
<stop offset="1" stop-color="#EBF8FA"/>
</linearGradient>
</defs>
</svg>
